X: 222
T: Lullaby
C: Teton Sioux band 1911-1914
N: Derived from sioux217.krn
O: South Dakota, U.S.A.
N: Teton Sioux Music by Frances Densmore, 1918
Z: transcribed to **kern format by Craig Sapp
L: 1/8
M: 2/4
Q: 1/4=58
K: F clef=treble
%%linebreak <none>
G [I:setbarnb 1]| 
G2^F2 ||  
[M:3/4]F4-F3/ G/ | 
F> G G> G F3/ F/ | 
D2-D3E ||  
[M:2/4]D2G2 ||  
[M:3/4]F4-F3/ F/ | 
F> G G> G F3/ F/ | 
D4-D3/ E/ | 
D2G2^F2 | 
F4-F3/ F/ | 
F> G G> G F3/ F/ | 
D2-D3D | 
D2G2^F2 | 
F4-F3/ G/ | 
F> G G> G F3/ F/ | 
D2-D3 :|]  



